X: 18317
T: Humours Of Tullyknockbrine, The
R: reel
M: 4/4
K: Cmajor
C2GC EGCE|GCEG AFDB,|C2 GC EGGA|GEDG EC C2:|
A3G (3ABc BA|G2BG dGBG|(3GAB cB ABcd|egdg eAAG|
ABcd egdB|G2BG dGBG|C2GC EGGA|GEDG ECCB,||

